assets/illustrations/multisize/72/vssx.svg

<svg data-name="ICONS" xmlns="http://www.w3.org/2000/svg" viewBox="0 0 72 72"><defs><linearGradient id="a" x1="14.914" y1="4.912" x2="67.086" y2="67.088" gradientUnits="userSpaceOnUse"><stop offset="0" stop-color="#fff" stop-opacity="0"/><stop offset=".862" stop-color="#5e5e5e" stop-opacity=".063"/><stop offset="1" stop-opacity=".1"/></linearGradient><linearGradient id="b" x1="58.447" y1="18.553" x2="69.501" y2="7.499" gradientUnits="userSpaceOnUse"><stop offset="0" stop-color="#fff" stop-opacity="0"/><stop offset=".446" stop-color="#fff" stop-opacity=".008"/><stop offset=".636" stop-color="#fff" stop-opacity=".036"/><stop offset=".776" stop-color="#fff" stop-opacity=".085"/><stop offset=".892" stop-color="#fff" stop-opacity=".154"/><stop offset=".993" stop-color="#fff" stop-opacity=".243"/><stop offset="1" stop-color="#fff" stop-opacity=".25"/></linearGradient><linearGradient id="c" x1="25.917" y1="66.767" x2="26.848" y2="58.053" gradientUnits="userSpaceOnUse"><stop offset="0" stop-color="#828282" stop-opacity="0"/><stop offset=".862" stop-color="#303030" stop-opacity=".126"/><stop offset="1" stop-opacity=".2"/></linearGradient><linearGradient id="d" x1="21.5" y1="58.75" x2="21.5" y2="21.167" gradientUnits="userSpaceOnUse"><stop offset="0" stop-color="#fff" stop-opacity="0"/><stop offset=".526" stop-color="#fff" stop-opacity=".007"/><stop offset=".715" stop-color="#fff" stop-opacity=".034"/><stop offset=".85" stop-color="#fff" stop-opacity=".08"/><stop offset=".959" stop-color="#fff" stop-opacity=".146"/><stop offset="1" stop-color="#fff" stop-opacity=".18"/></linearGradient></defs><path fill="#fff" d="M17 5h48v62H17z"/><path d="M66 4H16v64h50zm-2 62H18V6h46z" fill="#a6a6a6"/><path d="M43 11v23h16V11zm2 2h12v19H45zM43 38v23h16V38zm2 2h12v19H45zM23 11v23h16V11zm2 2h12v19H25zM25 38h-2v23h16V38zm12 21H25V40h12z" fill="#949494"/><path fill="#3955a3" d="M6 25l31-5v40L6 55V25z"/><path d="M30 31l-6.23 18h-4.616L13 31h4.389l3.77 12.527a8.96 8.96 0 0 1 .366 1.795h.076a10.08 10.08 0 0 1 .39-1.845L25.738 31z" fill="#fff"/><path d="M66 4H16v19.387L6 25v30l10 1.613V68h50z" fill="url(#a)"/><path fill="url(#b)" d="M66 18V4H16v2h48v62h2V18z"/><path fill="url(#c)" d="M37 66H16v-9.38L37 60v6z"/><path fill="url(#d)" d="M37 20L6 25v30l31 5V20z"/><path fill="url(#b)" d="M66 18V4H16v2h48v62h2V18z"/></svg>

<svg id="ICONS" xmlns="http://www.w3.org/2000/svg" xmlns:xlink="http://www.w3.org/1999/xlink" viewBox="0 0 72 72"><defs><style>.cls-1{fill:#fff;}.cls-2{fill:#a6a6a6;}.cls-3{fill:#2c5898;}.cls-4{fill:url(#linear-gradient);}.cls-5{fill:url(#linear-gradient-2);}.cls-6{fill:url(#linear-gradient-3);}.cls-7{fill:url(#linear-gradient-4);}.cls-8{fill:url(#linear-gradient-5);}</style><linearGradient id="linear-gradient" x1="14.91" y1="4.91" x2="67.09" y2="67.09" gradientUnits="userSpaceOnUse"><stop offset="0" stop-color="#fff" stop-opacity="0"/><stop offset="0.86" stop-color="#5e5e5e" stop-opacity="0.06"/><stop offset="1" stop-opacity="0.1"/></linearGradient><linearGradient id="linear-gradient-2" x1="25.97" y1="65.8" x2="26.8" y2="58.02" gradientUnits="userSpaceOnUse"><stop offset="0" stop-color="#828282" stop-opacity="0"/><stop offset="0.86" stop-color="#303030" stop-opacity="0.13"/><stop offset="1" stop-opacity="0.2"/></linearGradient><linearGradient id="linear-gradient-3" x1="21.5" y1="58.75" x2="21.5" y2="21.17" gradientUnits="userSpaceOnUse"><stop offset="0" stop-color="#fff" stop-opacity="0"/><stop offset="0.53" stop-color="#fff" stop-opacity="0.01"/><stop offset="0.72" stop-color="#fff" stop-opacity="0.03"/><stop offset="0.85" stop-color="#fff" stop-opacity="0.08"/><stop offset="0.96" stop-color="#fff" stop-opacity="0.15"/><stop offset="1" stop-color="#fff" stop-opacity="0.18"/></linearGradient><linearGradient id="linear-gradient-4" x1="58.45" y1="18.55" x2="69.5" y2="7.5" gradientUnits="userSpaceOnUse"><stop offset="0" stop-color="#fff" stop-opacity="0"/><stop offset="0.45" stop-color="#fff" stop-opacity="0.01"/><stop offset="0.64" stop-color="#fff" stop-opacity="0.04"/><stop offset="0.78" stop-color="#fff" stop-opacity="0.08"/><stop offset="0.89" stop-color="#fff" stop-opacity="0.15"/><stop offset="0.99" stop-color="#fff" stop-opacity="0.24"/><stop offset="1" stop-color="#fff" stop-opacity="0.25"/></linearGradient><linearGradient id="linear-gradient-5" x1="25.92" y1="66.77" x2="26.85" y2="58.05" xlink:href="#linear-gradient-2"/></defs><title>Artboard 231</title><rect class="cls-1" x="17" y="5" width="48" height="62"/><path class="cls-2" d="M66,4H16V68H66ZM64,66H18V6H64Z"/><path class="cls-2" d="M24,39v0m1-1H23V61h2V38Z"/><path class="cls-2" d="M44,12V33h0V12m15-1H43V34H59V11ZM45,32V13H57V32Z"/><path class="cls-2" d="M44,39V60h0V39m15-1H43V61H59V38ZM45,59V40H57V59Z"/><path class="cls-2" d="M24,12V33h0V12m15-1H23V34H39V11ZM25,32V13H37V32Z"/><path class="cls-2" d="M38,39v0m1-1H25v2H37V59H25v2H39V38Z"/><polygon class="cls-3" points="6 25 37 20 37 60 6 55 6 25"/><path class="cls-1" d="M30,31,23.77,49H19.15L13,31h4.39l3.77,12.53a9,9,0,0,1,.37,1.79h.08A10.08,10.08,0,0,1,22,43.48L25.74,31Z"/><path class="cls-4" d="M66,4H16V23.39L6,25V55l10,1.61V68H66Z"/><polygon class="cls-5" points="37 65 16 65 16 56.62 37 60 37 65"/><polygon class="cls-6" points="37 20 6 25 6 55 37 60 37 20"/><polygon class="cls-7" points="66 18 66 4 16 4 16 6 50 6 64 6 64 20 64 68 66 68 66 18"/><polygon class="cls-8" points="37 66 16 66 16 56.62 37 60 37 66"/><polygon class="cls-6" points="37 20 6 25 6 55 37 60 37 20"/><polygon class="cls-7" points="66 18 66 4 16 4 16 6 50 6 64 6 64 20 64 68 66 68 66 18"/></svg>
